Adwaita++-Dark/actions/16/labplot-TeX-logo.svg

<svg fill="none" height="16" viewBox="0 0 16 16" width="16" xmlns="http://www.w3.org/2000/svg" xmlns:xlink="http://www.w3.org/1999/xlink">
  <clipPath id="clip0">
    <path d="m0 0h16v16h-16z"/>
  </clipPath>
  <g clip-path="url(#clip0)" fill="#e6ddff">
    <path d="m3.18932 10.8786h-1.27217v-5.10198h-1.91715v-1.27662h5.10203v1.27662h-1.91271z"/>
    <path d="m10.1507 12.8786h-4.37255v-6.3786h4.37255v1.27662h-3.09593v1.27662h2.09508v1.27666h-2.09508v1.2721h3.09593z"/>
    <path d="m16 10.8786h-1.548l-1.2276-2.05945-1.2322 2.05945h-1.539l1.9571-3.18928-1.9571-3.18932h1.539l1.2322 2.05949 1.2276-2.05949h1.548l-1.9572 3.18932z"/>
  </g>
</svg>

<svg xmlns="http://www.w3.org/2000/svg" fill="none" width="16" height="16" viewBox="0 0 16 16">
 <g clip-path="url(#clip0)">
  <path fill="#E6DDFF" d="M3.18932 10.8786H1.91715V5.77662H0V4.5H5.10203V5.77662H3.18932V10.8786Z"/>
  <path fill="#E6DDFF" d="M10.1507 12.8786H5.77815V6.5H10.1507V7.77662H7.05477V9.05324H9.14985V10.3299H7.05477V11.602H10.1507V12.8786Z"/>
  <path fill="#E6DDFF" d="M16 10.8786H14.452L13.2244 8.81915L11.9922 10.8786H10.4532L12.4103 7.68932L10.4532 4.5H11.9922L13.2244 6.55949L14.452 4.5H16L14.0428 7.68932L16 10.8786Z"/>
 </g>
 <defs>
  <clipPath id="clip0">
   <rect fill="#fff" width="16" height="16"/>
  </clipPath>
 </defs>
</svg>
